X:150
T:The Assembly Drill Call - Regulation Fife Calls 1776-1856, #4 *
B:American Veteran Fifer, Regulation Fife Calls 1776-1856, #4
M:2/4
L:1/16
Q:1/4=90
K:D
dBGB e2e2|dBGB AFD2|dBGBefge|dBGB A4  :|ABcA BcD2|efge d2d2|gfge dBGB|cAFA"^Fine." G4:||
M:2/4
K:D
"^or The Following"G>B|d>B G>B e>f g>e|d>B G>B AFD2|d>B GB e>f g>e|d>B G>B A2:||:D2|B>A G>B A>B c>A|B>d g>e d2ef|g>f g>d e>c A>F|G2B2G2:|
